X:1
T:Folsom, 11.10.11.10
T:Folsom, 11.10.11.10
T:Arranged from Mozart, 1888
T:Public Domain Courtesy of the Cyber Hymnal™
C:Arranged from Mozart, 1888
Z:Public Domain
Z:Courtesy of the Cyber Hymnal™
%%score ( 1 2 ) 3
L:1/8
Q:1/4=95
M:2/4
K:D
V:1 treble 
V:2 treble 
V:3 bass 
V:1
 [FA]2 [FA][FA] | [FA]2 [DF][FA] | ([EG][DF]) [EG][FA] | [EG]2 [DF]2 | D2 [CE][CE] | %5
 [DF]2 [EG][FA] | ([GB][FA]) [EG][DF] | [DF]2 [CE]2 | [EG]2 [EG][EG] | [DF]2 [DF][FA] | %10
 [EG][DF] [EG][FA] | [EG]2 [DF]2 | ([Af][Ge]) [Ad][Ac] | ([GB][FA]) [EG][DF] | (FE) [DE]>[CE] | %15
 D4 |] %16
V:2
 x4 | x4 | x4 | x4 | D2 x2 | x4 | x4 | x4 | x4 | x4 | x4 | x4 | x4 | x4 | D2 x2 | D4 |] %16
V:3
 [D,D]2 [D,D][D,D] | [D,D]2 [D,A,][D,A,] | [A,,A,]2 [A,,A,][A,,A,] | [D,A,]2 [D,A,]2 | %4
 [D,F,]2 [A,,A,][A,,A,] | [D,A,]2 [D,D][D,D] | [D,D]2 [G,,B,][^G,,B,] | [A,,A,]4 | %8
 [A,,A,]2 [A,,A,][A,,A,] | [D,A,]2 [D,A,][D,A,] | [A,,A,]2 [A,,A,][A,,A,] | [D,A,]2 [D,A,]2 | %12
 [D,A,]2 [D,A,][D,D] | [D,D]2 [A,,C][B,,D] | [G,,B,]2 [A,,A,]>[A,,G,] | [D,F,]4 |] %16

